framework/glyphicons/star-empty.svg

<svg id="ds44-icons" xmlns="http://www.w3.org/2000/svg" width="466.28031" height="480" viewBox="0 0 466.28031 480"><g id="star-empty"><g id="Tracé_1099" data-name="Tracé 1099"><path d="M367.29733,454.222a16.76422,16.76422,0,0,1-8.89452-2.5753l-124.17709-78.644L107.04051,451.73328a16.62455,16.62455,0,0,1-24.909-18.00546L115.22088,296.025,5.73816,201.12842a16.61773,16.61773,0,0,1,9.24078-29.09656l149.64875-14.87831L219.20675,35.5734a16.64358,16.64358,0,0,1,15.17046-9.81427h.17313A16.62259,16.62259,0,0,1,249.67753,35.898L301.0104,157.17519l150.298,14.84585a16.62954,16.62954,0,0,1,9.06766,29.24805L347.95012,296.06827l35.44825,137.37821a16.62609,16.62609,0,0,1-16.101,20.77553ZM56.68149,201.29073l87.94975,76.2527a16.59958,16.59958,0,0,1,5.28045,16.42565L123.899,402.21826l101.6919-62.95419a16.62359,16.62359,0,0,1,17.63756.08656L340.722,401.09292,313.1511,294.25042a16.63838,16.63838,0,0,1,5.38866-16.85848l90.30864-76.15531L287.91749,189.2907a16.6165,16.6165,0,0,1-13.65558-10.06315L233.92275,83.96308l-42.89282,95.58909a16.618,16.618,0,0,1-13.52574,9.72771Z"/></g></g></svg>

<svg id="ds44-icons" xmlns="http://www.w3.org/2000/svg" viewBox="0 0 466.28 480"><title>star-empty</title><g id="star-empty"><g id="Tracé_1099" data-name="Tracé 1099"><path d="M367.3,454.22a16.76,16.76,0,0,1-8.9-2.57L234.23,373,107,451.73a16.62,16.62,0,0,1-24.91-18L115.22,296,5.74,201.13A16.62,16.62,0,0,1,15,172l149.65-14.88L219.21,35.57a16.64,16.64,0,0,1,15.17-9.81h.17A16.63,16.63,0,0,1,249.68,35.9L301,157.18,451.31,172a16.63,16.63,0,0,1,9.07,29.25L348,296.07,383.4,433.45a16.62,16.62,0,0,1-16.1,20.77ZM56.68,201.29l87.95,76.25A16.6,16.6,0,0,1,149.91,294l-26,108.25,101.69-63a16.63,16.63,0,0,1,17.64.09l97.49,61.74L313.15,294.25a16.64,16.64,0,0,1,5.39-16.86l90.31-76.15-120.93-12a16.64,16.64,0,0,1-13.66-10.06L233.92,84,191,179.55a16.63,16.63,0,0,1-13.53,9.73Z"/></g></g></svg>
